!!!COM: Music21
!!!OTL: Foliada de Berducido
!!!OMV: pezas_foliadas_foliada-de-berducido_foliada-de-berducido-partitura.musicxml
**kern
*I"Bagpipes
*I'Bag
*clefG^2
*k[b-e-a-]
*E-:
*M3/4
=1
!LO:TX:a:t=Prestissimo
*MM200
!LO:TX:a:t=[quarter]=200
2r
4gg
=||
4ccc
8bb-L
8aa-J
4gg
=
4ff
4gg
4bb-
=
4aa-
4gg
[4ff
=
2ff]
4ff
=
4gg
4ff
4ee-
=
4dd
4ee-
4ff
=
4gg
4aa-
[4gg
=
2gg]
4gg
=
4ccc
8bb-L
8aa-J
4gg
=
4ff
4gg
4bb-
=
4aa-
4gg
[4ff
!!linebreak:original
=
4ff]
4ee-
4ff
=
4gg
4ccc
[4aa-
=
4aa-]
4ff
[4dd
=
4dd]
4aa-
4gg
=
[2.cc
=
8cc]
4.r
4gg
=||
2cc
4dd
=
4ee-
4ff
4gg
=
2gg
4ee-
=
4gg
4r
4ff
=
2dd
4ee-
=
4ff
4gg
4ff
!!linebreak:original
=
8ee-L
8ddJ
[2cc
!!linebreak:original
=
2cc]
4gg
=||
2cc
4dd
=
4ee-
4ff
4gg
=
2gg
4ee-
=
4gg
4r
4ff
=
2dd
4ee-
=
4ff
4gg
4ff
=
8ee-L
8ddJ
[2cc
=
2cc]
4gg
=||
2cc
4dd
=
4ee-
4ff
4gg
=
2gg
4ee-
=
4gg
4r
4ff
!!linebreak:original
=
2dd
4ee-
=
4ff
4gg
4ff
=
8ee-L
8ddJ
4cc
4cc
=||
4cc
4dd
4ee-
=
4ff
4ff
4ff
=
4ff
4ee-
4ff
!!linebreak:original
=
4.gg
8r
4cc
=
4cc
4dd
4ee-
=
4ff
4ff
4ff
=
4ff
4ee-
4dd
=
4.cc
8r
4cc
=
4cc
4dd
4ee-
=
4.ff
8r
4ff
=
4ff
4ee-
4ff
=
4.gg;
8r
4ccc
=
4ccc
4bb-
4aa-
=
4gg
4aa-
4gg
!!linebreak:original
=
4ff
4ee-
4dd
!!linebreak:original
=||
[2.cc
=
2.cc_
=
8cc]
4.r
4gg
=||
[2.cc
=
2.cc_
=
8cc]
8r
2r
==
*-
